logos/shrimPy.svg

<?xml version="1.0" encoding="UTF-8"?>
<!DOCTYPE svg PUBLIC "-//W3C//DTD SVG 1.1//EN" "http://www.w3.org/Graphics/SVG/1.1/DTD/svg11.dtd">
<svg xmlns="http://www.w3.org/2000/svg" version="1.1" width="496px" height="398px" style="shape-rendering:geometricPrecision; text-rendering:geometricPrecision; image-rendering:optimizeQuality; fill-rule:evenodd; clip-rule:evenodd" xmlns:xlink="http://www.w3.org/1999/xlink">
<g><path style="opacity:1" fill="#fefefe" d="M -0.5,-0.5 C 164.833,-0.5 330.167,-0.5 495.5,-0.5C 495.5,132.167 495.5,264.833 495.5,397.5C 330.167,397.5 164.833,397.5 -0.5,397.5C -0.5,264.833 -0.5,132.167 -0.5,-0.5 Z"/></g>
<g><path style="opacity:1" fill="#a8d4f9" d="M 192.5,16.5 C 217.955,14.453 229.288,25.953 226.5,51C 223.353,61.4182 216.353,67.4182 205.5,69C 190.027,70.6858 179.861,64.1858 175,49.5C 172.191,37.9267 175.358,28.4267 184.5,21C 187.354,19.6035 190.02,18.1035 192.5,16.5 Z"/></g>
<g><path style="opacity:1" fill="#f6da68" d="M 305.5,34.5 C 305.653,40.8692 305.32,47.2026 304.5,53.5C 303.024,55.7686 301.524,58.1019 300,60.5C 297.674,62.0657 295.508,63.7324 293.5,65.5C 287.763,67.9418 281.763,68.9418 275.5,68.5C 265.558,67.2216 258.891,61.8883 255.5,52.5C 254.21,45.174 254.21,37.8406 255.5,30.5C 261.605,18.7805 271.272,13.9471 284.5,16C 295.108,18.1105 302.108,24.2771 305.5,34.5 Z"/></g>
<g><path style="opacity:1" fill="#add6f9" d="M 32.5,20.5 C 35.6297,21.5722 38.2964,23.4055 40.5,26C 48.5615,31.0267 57.2281,35.0267 66.5,38C 88.7047,43.508 111.038,48.508 133.5,53C 147.316,59.2169 161.65,63.7169 176.5,66.5C 176.579,67.9305 176.246,69.2638 175.5,70.5C 172.554,71.6548 169.554,71.8214 166.5,71C 153.167,67 139.833,63 126.5,59C 107.628,55.093 88.9616,50.4264 70.5,45C 54.9176,40.8388 42.2509,32.6721 32.5,20.5 Z"/></g>
<g><path style="opacity:1" fill="#e9d06c" d="M 408.5,44.5 C 402.629,45.4711 396.963,46.8044 391.5,48.5C 389.379,48.3253 387.379,48.6586 385.5,49.5C 380.876,49.7633 376.542,50.7633 372.5,52.5C 369.848,52.4095 367.515,53.0762 365.5,54.5C 350.048,58.1493 334.715,62.316 319.5,67C 317.19,67.4966 314.857,67.6633 312.5,67.5C 312.351,66.448 312.517,65.448 313,64.5C 314.771,63.6959 316.271,62.5292 317.5,61C 330.272,57.3075 342.939,53.3075 355.5,49C 374.982,44.2141 394.648,40.2141 414.5,37C 429.453,33.3974 442.953,26.8974 455,17.5C 455.163,19.3867 454.329,20.8867 452.5,22C 439.564,32.9677 424.897,40.4677 408.5,44.5 Z"/></g>
<g><path style="opacity:1" fill="#f8e289" d="M 255.5,30.5 C 254.21,37.8406 254.21,45.174 255.5,52.5C 254.778,52.0825 254.278,51.4158 254,50.5C 253.833,47.6667 253.667,44.8333 253.5,42C 253.286,37.8673 253.952,34.034 255.5,30.5 Z"/></g>
<g><path style="opacity:1" fill="#fbedb6" d="M 305.5,34.5 C 306.164,36.9779 306.497,39.6445 306.5,42.5C 306.706,46.4687 306.039,50.1354 304.5,53.5C 305.32,47.2026 305.653,40.8692 305.5,34.5 Z"/></g>
<g><path style="opacity:1" fill="#f6ebc1" d="M 408.5,44.5 C 403.212,46.9325 397.545,48.2659 391.5,48.5C 396.963,46.8044 402.629,45.4711 408.5,44.5 Z"/></g>
<g><path style="opacity:1" fill="#f5e9bb" d="M 385.5,49.5 C 385.082,50.2216 384.416,50.7216 383.5,51C 379.83,51.5482 376.163,52.0482 372.5,52.5C 376.542,50.7633 380.876,49.7633 385.5,49.5 Z"/></g>
<g><path style="opacity:1" fill="#f7eeca" d="M 372.5,52.5 C 370.485,53.9238 368.152,54.5905 365.5,54.5C 367.515,53.0762 369.848,52.4095 372.5,52.5 Z"/></g>
<g><path style="opacity:1" fill="#fdf6d9" d="M 293.5,65.5 C 291.615,67.3115 289.281,68.4782 286.5,69C 282.642,69.8099 278.976,69.6433 275.5,68.5C 281.763,68.9418 287.763,67.9418 293.5,65.5 Z"/></g>
<g><path style="opacity:1" fill="#acd6f9" d="M 181.5,82.5 C 190.839,82.3335 200.173,82.5002 209.5,83C 166.571,90.2754 132.738,111.775 108,147.5C 98.9455,163.271 91.2788,179.605 85,196.5C 84,201.833 83,207.167 82,212.5C 81.3726,199.519 83.0392,186.852 87,174.5C 93.4097,158.348 101.41,143.014 111,128.5C 129.163,104.811 152.663,89.4774 181.5,82.5 Z"/></g>
<g><path style="opacity:1" fill="#f7dc67" d="M 381.5,128.5 C 382.256,132.767 383.589,136.767 385.5,140.5C 386.816,191.781 386.816,243.114 385.5,294.5C 383.837,296.438 383.171,298.772 383.5,301.5C 383.5,301.833 383.5,302.167 383.5,302.5C 381.723,305.505 380.723,308.838 380.5,312.5C 365.686,351.407 337.686,373.907 296.5,380C 271.167,380.667 245.833,380.667 220.5,380C 213.373,379.388 206.706,377.554 200.5,374.5C 200.027,373.094 199.027,372.427 197.5,372.5C 181.689,363.828 172.189,350.494 169,332.5C 168.333,321.833 168.333,311.167 169,300.5C 172.144,275.212 185.644,258.545 209.5,250.5C 213.796,249.57 218.13,248.737 222.5,248C 234.674,247.831 246.674,247.331 258.5,246.5C 283.293,243.365 300.626,230.365 310.5,207.5C 311.674,206.486 312.34,205.153 312.5,203.5C 312.678,200.784 313.178,198.117 314,195.5C 314.667,165.833 314.667,136.167 314,106.5C 313.59,105.099 313.09,103.766 312.5,102.5C 312.59,99.8478 311.924,97.5145 310.5,95.5C 308.534,91.5195 306.534,87.5195 304.5,83.5C 331.488,86.242 354.655,97.242 374,116.5C 376.772,120.388 379.272,124.388 381.5,128.5 Z"/></g>
<g><path style="opacity:1" fill="#a8d4fa" d="M 300.5,126.5 C 300.731,149.181 300.398,171.848 299.5,194.5C 294.686,212.152 283.686,224.319 266.5,231C 262.886,231.945 259.219,232.612 255.5,233C 229.833,233.333 204.167,233.667 178.5,234C 168.657,236.669 160.824,242.169 155,250.5C 151.207,257.42 148.54,264.754 147,272.5C 146.333,294.167 146.333,315.833 147,337.5C 148.259,344.872 150.592,351.872 154,358.5C 158.467,363.968 163.3,369.135 168.5,374C 163.113,373.822 158.113,372.156 153.5,369C 146.32,363.909 139.32,358.576 132.5,353C 117.068,335.632 106.234,315.799 100,293.5C 96.687,260.495 96.687,227.495 100,194.5C 105.146,173.684 114.813,155.351 129,139.5C 152.573,113.465 181.407,96.298 215.5,88C 229.493,86.0471 243.493,86.0471 257.5,88C 279.312,92.6533 293.646,105.487 300.5,126.5 Z"/></g>
<g><path style="opacity:1" fill="#a8d5f7" d="M 37.5,186.5 C 36.5655,185.432 36.2322,184.099 36.5,182.5C 39.2834,176.257 42.1167,169.923 45,163.5C 63.3256,135.841 86.8256,113.674 115.5,97C 122.13,93.5911 129.13,92.2578 136.5,93C 103.881,108.727 76.0475,130.56 53,158.5C 47.0335,167.437 41.8668,176.77 37.5,186.5 Z"/></g>
<g><path style="opacity:1" fill="#fdf2c9" d="M 310.5,95.5 C 311.924,97.5145 312.59,99.8478 312.5,102.5C 311.076,100.485 310.41,98.1522 310.5,95.5 Z"/></g>
<g><path style="opacity:1" fill="#e8ce73" d="M 458.5,233.5 C 457.833,233.5 457.5,233.167 457.5,232.5C 458.803,228.618 459.47,224.618 459.5,220.5C 460.165,217.518 460.498,214.352 460.5,211C 460.656,205.91 459.99,201.077 458.5,196.5C 458.5,196.167 458.5,195.833 458.5,195.5C 457.806,190.085 456.14,185.085 453.5,180.5C 445.228,161.194 432.895,144.694 416.5,131C 399.015,116.673 380.349,104.173 360.5,93.5C 399.267,105.346 429.433,128.679 451,163.5C 460.252,181.001 463.919,199.667 462,219.5C 461.272,224.318 460.105,228.984 458.5,233.5 Z"/></g>
<g><path style="opacity:1" fill="#fae798" d="M 381.5,128.5 C 383.806,132.085 385.139,136.085 385.5,140.5C 383.589,136.767 382.256,132.767 381.5,128.5 Z"/></g>
<g><path style="opacity:1" fill="#e8cf6f" d="M 406.5,168.5 C 407.057,173.165 408.39,177.498 410.5,181.5C 413.064,186.422 414.397,191.755 414.5,197.5C 414.815,201.371 414.482,205.038 413.5,208.5C 413.656,204.236 412.989,200.236 411.5,196.5C 410.943,191.835 409.61,187.502 407.5,183.5C 405.896,178.288 403.729,173.288 401,168.5C 395.468,161.1 391.302,153.1 388.5,144.5C 388.833,142.833 389.167,141.167 389.5,139.5C 390.48,140.981 391.647,142.315 393,143.5C 397.764,151.744 402.264,160.078 406.5,168.5 Z"/></g>
<g><path style="opacity:1" fill="#e6f3fd" d="M 300.5,126.5 C 301.663,147.329 301.829,168.329 301,189.5C 300.802,191.382 300.302,193.048 299.5,194.5C 300.398,171.848 300.731,149.181 300.5,126.5 Z"/></g>
<g><path style="opacity:1" fill="#f0df9d" d="M 406.5,168.5 C 408.61,172.502 409.943,176.835 410.5,181.5C 408.39,177.498 407.057,173.165 406.5,168.5 Z"/></g>
<g><path style="opacity:1" fill="#f6eac4" d="M 453.5,180.5 C 456.14,185.085 457.806,190.085 458.5,195.5C 456.256,190.767 454.589,185.767 453.5,180.5 Z"/></g>
<g><path style="opacity:1" fill="#f7eecb" d="M 407.5,183.5 C 409.61,187.502 410.943,191.835 411.5,196.5C 409.39,192.498 408.057,188.165 407.5,183.5 Z"/></g>
<g><path style="opacity:1" fill="#b0d9f0" d="M 36.5,182.5 C 36.2322,184.099 36.5655,185.432 37.5,186.5C 30.4991,204.234 30.8324,221.734 38.5,239C 37.5509,239.617 36.7175,239.451 36,238.5C 35,235.5 34,232.5 33,229.5C 31.4587,218.884 31.1254,208.217 32,197.5C 33.0583,192.244 34.5583,187.244 36.5,182.5 Z"/></g>
<g><path style="opacity:1" fill="#fcf0bb" d="M 312.5,203.5 C 312.34,205.153 311.674,206.486 310.5,207.5C 310.229,205.62 310.896,204.287 312.5,203.5 Z"/></g>
<g><path style="opacity:1" fill="#f7eecf" d="M 458.5,196.5 C 459.99,201.077 460.656,205.91 460.5,211C 460.498,214.352 460.165,217.518 459.5,220.5C 459.499,212.483 459.166,204.483 458.5,196.5 Z"/></g>
<g><path style="opacity:1" fill="#f4e8bb" d="M 414.5,197.5 C 415.815,202.68 415.815,208.014 414.5,213.5C 413.548,211.955 413.215,210.288 413.5,208.5C 414.482,205.038 414.815,201.371 414.5,197.5 Z"/></g>
<g><path style="opacity:1" fill="#f2e1ab" d="M 457.5,232.5 C 457.5,233.167 457.833,233.5 458.5,233.5C 458.456,236.316 457.456,238.649 455.5,240.5C 454.709,237.528 455.375,234.861 457.5,232.5 Z"/></g>
<g><path style="opacity:1" fill="#fcf0c0" d="M 258.5,246.5 C 246.674,247.331 234.674,247.831 222.5,248C 218.13,248.737 213.796,249.57 209.5,250.5C 212.719,248.282 216.386,247.115 220.5,247C 233.162,246.5 245.829,246.333 258.5,246.5 Z"/></g>
<g><path style="opacity:1" fill="#fbecaa" d="M 385.5,294.5 C 385.59,297.152 384.924,299.485 383.5,301.5C 383.171,298.772 383.837,296.438 385.5,294.5 Z"/></g>
<g><path style="opacity:1" fill="#fbedb0" d="M 383.5,302.5 C 383.277,306.162 382.277,309.495 380.5,312.5C 380.723,308.838 381.723,305.505 383.5,302.5 Z"/></g>
<g><path style="opacity:1" fill="#fbeaa7" d="M 197.5,372.5 C 199.027,372.427 200.027,373.094 200.5,374.5C 198.973,374.573 197.973,373.906 197.5,372.5 Z"/></g>
</svg>

<svg xmlns="http://www.w3.org/2000/svg" width="496" height="398" style="shape-rendering:geometricPrecision;text-rendering:geometricPrecision;image-rendering:optimizeQuality;fill-rule:evenodd;clip-rule:evenodd"><path style="opacity:1" fill="#fefefe" d="M-.5-.5h496v398H-.5V-.5z"/><path style="opacity:1" fill="#a8d4f9" d="M192.5 16.5c25.455-2.047 36.788 9.453 34 34.5-3.147 10.418-10.147 16.418-21 18-15.473 1.686-25.639-4.814-30.5-19.5-2.809-11.573.358-21.073 9.5-28.5a77.242 77.242 0 0 0 8-4.5z"/><path style="opacity:1" fill="#f6da68" d="M305.5 34.5a123.89 123.89 0 0 1-1 19 778.377 778.377 0 0 0-4.5 7 63.396 63.396 0 0 0-6.5 5c-5.737 2.442-11.737 3.442-18 3-9.942-1.278-16.609-6.612-20-16a63.016 63.016 0 0 1 0-22c6.105-11.72 15.772-16.553 29-14.5 10.608 2.11 17.608 8.277 21 18.5z"/><path style="opacity:1" fill="#add6f9" d="M32.5 20.5c3.13 1.072 5.796 2.905 8 5.5 8.062 5.027 16.728 9.027 26 12a1500.033 1500.033 0 0 0 67 15 189.493 189.493 0 0 0 43 13.5 6.845 6.845 0 0 1-1 4c-2.946 1.155-5.946 1.321-9 .5l-40-12a706.12 706.12 0 0 1-56-14c-15.582-4.161-28.25-12.328-38-24.5z"/><path style="opacity:1" fill="#e9d06c" d="M408.5 44.5a127.43 127.43 0 0 0-17 4c-2.121-.175-4.121.159-6 1-4.624.263-8.958 1.263-13 3-2.652-.09-4.985.576-7 2a714.312 714.312 0 0 0-46 12.5c-2.31.497-4.643.663-7 .5a4.934 4.934 0 0 1 .5-3 12.139 12.139 0 0 0 4.5-3.5 814.49 814.49 0 0 0 38-12 748.956 748.956 0 0 1 59-12c14.953-3.603 28.453-10.103 40.5-19.5.163 1.887-.671 3.387-2.5 4.5-12.936 10.968-27.603 18.468-44 22.5z"/><path style="opacity:1" fill="#f8e289" d="M255.5 30.5a63.016 63.016 0 0 0 0 22c-.722-.417-1.222-1.084-1.5-2l-.5-8.5c-.214-4.133.452-7.966 2-11.5z"/><path style="opacity:1" fill="#fbedb6" d="M305.5 34.5c.664 2.478.997 5.145 1 8 .206 3.969-.461 7.635-2 11a123.89 123.89 0 0 0 1-19z"/><path style="opacity:1" fill="#f6ebc1" d="M408.5 44.5c-5.288 2.432-10.955 3.766-17 4a127.43 127.43 0 0 1 17-4z"/><path style="opacity:1" fill="#f5e9bb" d="M385.5 49.5c-.418.722-1.084 1.222-2 1.5-3.67.548-7.337 1.048-11 1.5 4.042-1.737 8.376-2.737 13-3z"/><path style="opacity:1" fill="#f7eeca" d="M372.5 52.5c-2.015 1.424-4.348 2.09-7 2 2.015-1.424 4.348-2.09 7-2z"/><path style="opacity:1" fill="#fdf6d9" d="M293.5 65.5c-1.885 1.811-4.219 2.978-7 3.5-3.858.81-7.524.643-11-.5 6.263.442 12.263-.558 18-3z"/><path style="opacity:1" fill="#acd6f9" d="M181.5 82.5c9.339-.166 18.673 0 28 .5-42.929 7.275-76.762 28.775-101.5 64.5a327.175 327.175 0 0 0-23 49l-3 16c-.627-12.981 1.04-25.648 5-38a251.512 251.512 0 0 1 24-46c18.163-23.689 41.663-39.023 70.5-46z"/><path style="opacity:1" fill="#f7dc67" d="M381.5 128.5c.756 4.267 2.089 8.267 4 12a3004.039 3004.039 0 0 1 0 154c-1.663 1.938-2.329 4.272-2 7v1c-1.777 3.005-2.777 6.338-3 10-14.814 38.907-42.814 61.407-84 67.5-25.333.667-50.667.667-76 0-7.127-.612-13.794-2.446-20-5.5-.473-1.406-1.473-2.073-3-2-15.811-8.672-25.311-22.006-28.5-40a256.122 256.122 0 0 1 0-32c3.144-25.288 16.644-41.955 40.5-50 4.296-.93 8.63-1.763 13-2.5a640.343 640.343 0 0 0 36-1.5c24.793-3.135 42.126-16.135 52-39 1.174-1.014 1.84-2.347 2-4a34.033 34.033 0 0 1 1.5-8 1979.51 1979.51 0 0 0 0-89 28.208 28.208 0 0 0-1.5-4c.09-2.652-.576-4.986-2-7-1.966-3.98-3.966-7.98-6-12 26.988 2.742 50.155 13.742 69.5 33a115.186 115.186 0 0 1 7.5 12z"/><path style="opacity:1" fill="#a8d4fa" d="M300.5 126.5c.231 22.681-.102 45.348-1 68-4.814 17.652-15.814 29.819-33 36.5a73.619 73.619 0 0 1-11 2l-77 1c-9.843 2.669-17.676 8.169-23.5 16.5a76.573 76.573 0 0 0-8 22 1055.972 1055.972 0 0 0 0 65 72.253 72.253 0 0 0 7 21 158.709 158.709 0 0 0 14.5 15.5c-5.387-.178-10.387-1.844-15-5a384.797 384.797 0 0 1-21-16c-15.432-17.368-26.266-37.201-32.5-59.5a494.3 494.3 0 0 1 0-99c5.146-20.816 14.813-39.149 29-55 23.573-26.035 52.407-43.202 86.5-51.5a151.278 151.278 0 0 1 42 0c21.812 4.653 36.146 17.487 43 38.5z"/><path style="opacity:1" fill="#a8d5f7" d="M37.5 186.5c-.934-1.068-1.268-2.401-1-4a8165.772 8165.772 0 0 1 8.5-19c18.326-27.659 41.826-49.826 70.5-66.5 6.63-3.409 13.63-4.742 21-4-32.619 15.727-60.453 37.56-83.5 65.5a191.75 191.75 0 0 0-15.5 28z"/><path style="opacity:1" fill="#fdf2c9" d="M310.5 95.5c1.424 2.014 2.09 4.348 2 7-1.424-2.015-2.09-4.348-2-7z"/><path style="opacity:1" fill="#e8ce73" d="M458.5 233.5c-.667 0-1-.333-1-1a38.353 38.353 0 0 0 2-12c.665-2.982.998-6.148 1-9.5.156-5.09-.51-9.923-2-14.5v-1c-.694-5.415-2.36-10.415-5-15-8.272-19.306-20.605-35.806-37-49.5a348.762 348.762 0 0 0-56-37.5c38.767 11.846 68.933 35.179 90.5 70 9.252 17.501 12.919 36.167 11 56a75.293 75.293 0 0 1-3.5 14z"/><path style="opacity:1" fill="#fae798" d="M381.5 128.5c2.306 3.585 3.639 7.585 4 12-1.911-3.733-3.244-7.733-4-12z"/><path style="opacity:1" fill="#e8cf6f" d="M406.5 168.5c.557 4.665 1.89 8.998 4 13 2.564 4.922 3.897 10.255 4 16 .315 3.871-.018 7.538-1 11 .156-4.264-.511-8.264-2-12-.557-4.665-1.89-8.998-4-13a74.41 74.41 0 0 0-6.5-15c-5.532-7.4-9.698-15.4-12.5-24l1-5a19.887 19.887 0 0 0 3.5 4 490.085 490.085 0 0 1 13.5 25z"/><path style="opacity:1" fill="#e6f3fd" d="M300.5 126.5a663.68 663.68 0 0 1 .5 63c-.198 1.882-.698 3.548-1.5 5a1365.359 1365.359 0 0 0 1-68z"/><path style="opacity:1" fill="#f0df9d" d="M406.5 168.5c2.11 4.002 3.443 8.335 4 13-2.11-4.002-3.443-8.335-4-13z"/><path style="opacity:1" fill="#f6eac4" d="M453.5 180.5c2.64 4.585 4.306 9.585 5 15-2.244-4.733-3.911-9.733-5-15z"/><path style="opacity:1" fill="#f7eecb" d="M407.5 183.5c2.11 4.002 3.443 8.335 4 13-2.11-4.002-3.443-8.335-4-13z"/><path style="opacity:1" fill="#b0d9f0" d="M36.5 182.5c-.268 1.599.066 2.932 1 4-7 17.734-6.668 35.234 1 52.5-.95.617-1.782.451-2.5-.5l-3-9a141.762 141.762 0 0 1-1-32c1.058-5.256 2.558-10.256 4.5-15z"/><path style="opacity:1" fill="#fcf0bb" d="M312.5 203.5c-.16 1.653-.826 2.986-2 4-.271-1.88.396-3.213 2-4z"/><path style="opacity:1" fill="#f7eecf" d="M458.5 196.5c1.49 4.577 2.156 9.41 2 14.5-.002 3.352-.335 6.518-1 9.5a288.983 288.983 0 0 0-1-24z"/><path style="opacity:1" fill="#f4e8bb" d="M414.5 197.5c1.315 5.18 1.315 10.514 0 16-.952-1.545-1.285-3.212-1-5 .982-3.462 1.315-7.129 1-11z"/><path style="opacity:1" fill="#f2e1ab" d="M457.5 232.5c0 .667.333 1 1 1-.044 2.816-1.044 5.149-3 7-.791-2.972-.125-5.639 2-8z"/><path style="opacity:1" fill="#fcf0c0" d="M258.5 246.5a640.343 640.343 0 0 1-36 1.5c-4.37.737-8.704 1.57-13 2.5 3.219-2.218 6.886-3.385 11-3.5 12.662-.5 25.329-.667 38-.5z"/><path style="opacity:1" fill="#fbecaa" d="M385.5 294.5c.09 2.652-.576 4.985-2 7-.329-2.728.337-5.062 2-7z"/><path style="opacity:1" fill="#fbedb0" d="M383.5 302.5c-.223 3.662-1.223 6.995-3 10 .223-3.662 1.223-6.995 3-10z"/><path style="opacity:1" fill="#fbeaa7" d="M197.5 372.5c1.527-.073 2.527.594 3 2-1.527.073-2.527-.594-3-2z"/></svg>
